X:546
T:Granu Waile or Ma-Ma
M:6/8
L:1/16
B:O'Neill's 546
N:"Slow"
Z:Transcribed by Dave Wooldridge
K:Gm
A2 \
| (.d2.=e2.f2) ((dc)(BA)(G^F)) | (G4  .G3) (G4 (AB)) | (c2A2f2) ( (dc)(BA)(GE)) | F4  F2  F4 (d=e) |
| f2=e2f2 ((dc)(BA)(G^F)) | (G2g2).g2 g2 ((gb)(ag)) | {fg}(f2=e2f2)  ((dc) (BA)(G^F)) | (.G2.G2.G2) G4 :|
|| (3d=ef \
| .g2(dc)(BA) .g2(dc)(BA) | (.G2.G2.G2) (G4 (3cd=e ) | .f2((cB)(AG)) f2 ((cB)(AG)) | (.F2.F2.F2) (F4 (d=e)) |
| .f2 (3=efed2 .g2 (3fgf=e2 | .a2 (3gag^f2 .g2(gb)(ag) | {fg}(f2=e2f2) ((d c)(BA)(G^F)) | (.G4 .G2) G4 |]


